X:1
T:Title
%%score { ( 1 3 ) | 2 }
L:1/8
M:4/4
K:Eb
V:1 treble nm="Grand Piano"
V:3 treble 
V:2 bass 
V:1
 z4 z2 z[Q:1/4=94] B, | GEDF E3 B, | [GB][EG][DF][FA] G2 GG | %3
 [CA][CA][Ec][CEA] [B,EG][B,EG][B,EB][B,EG] |[M:7/8] F-F-F- F- F3 |[M:1/8] [A,B,] | %6
[M:4/4] [G,B,G][K:bass][G,B,E][F,B,D][K:treble][A,B,F] [G,B,E]3 [G,B,] | %7
 [B,GB][B,EG][B,DF][B,FA] [B,EG]3 [DEG] | [CEA][CEA][Ec][CEA] [B,EG][B,EG][B,EB]E | %9
[M:7/8] [B,EG]2 [A,DF]2 E3 |[M:1/8] B |[M:4/4] e2 c2 B3 B | cBG[B,E] [B,DF]3 [B,EG] | %13
 [B,FA][B,=EG][B,FA][B,DB] [B,_EG][=A,E_G][B,E=G][Ge] |[M:7/8] dde c [B,DB]3 |[M:1/8] [A,B,] | %16
[M:4/4] [G,B,G][K:bass][G,B,E][F,B,D][K:treble][A,B,F] [G,B,E]3 [G,B,] | %17
 [B,GB][B,EG][B,DF][B,FA] [B,EG]3 [DEG] | [CEA][CEA][Ec][CEA] [B,EG][B,EG][B,EB]E | %19
[M:15/8] [B,EG]2 [A,DF]-[A,DF] [G,E]2- [G,E] z2 z6 |] %20
V:2
 z4 z2 z [E,G,] | [E,B,E][E,G,B,][B,,F,B,][B,,A,B,] [E,G,B,]3 [E,G,] | %2
 [E,B,][E,B,][B,,B,][B,,B,] [E,B,E]2 [E,B,_D][E,B,D] | [A,,A,][A,,A,][A,,A,]A,, E,E,G,E, | %4
[M:7/8] B,,2 F,, F,, B,,3 |[M:1/8] D, |[M:4/4] E,G,,B,,B,, E,3 E, | E,E,B,,B,, E,3 E, | %8
 A,,A,,A,,C, E,E,G,,C, |[M:7/8] B,,2 B,,2 [E,G,]3 |[M:1/8] [E,G,E] | %11
[M:4/4] [G,B,E]2 [A,E]2 [E,G,E]3 [E,G,E] | [E,A,E][E,G,E][E,B,E]G,, B,,3 B,, | %13
 D,_D,=D,B,, E,E,E,[_D,B,] |[M:7/8] [F,B,F][F,B,D][F,=A,C] [F,A,E] B,,3 |[M:1/8] D, | %16
[M:4/4] E,G,,B,,B,, E,3 E, | E,E,B,,B,, E,3 E, | A,,A,,A,,C, E,E,G,,C, | %19
[M:15/8] B,,2 B,,-B,, E,2- E, z2 z6 |] %20
V:3
 x8 | x8 | x8 | x8 |[M:7/8] [B,D]2 [=A,C] [CE] [B,D]3 |[M:1/8] x | %6
[M:4/4] x[K:bass] x2[K:treble] x5 | x8 | x8 |[M:7/8] x7 |[M:1/8] x |[M:4/4] x8 | x8 | x8 | %14
[M:7/8] x7 |[M:1/8] x |[M:4/4] x[K:bass] x2[K:treble] x5 | x8 | x8 |[M:15/8] x15 |] %20

